X: 1
T:Herr Ole
C:anon.
O:Norway
A:Saltdal
Z:H. Marvold, original trancription by H. Bakke
M:C
L:1/8
Q:1/4=96
K:Am
z E|:E2cB A2GF|EE FE D3D|
w:Herr O-le han tjen-te i sto-re kon-gens g\aard der
E>E E>F GG AG|F4- FE2E|E2Ac e2dc|
w:tjen-te han for kle--der og f\o--de. S\aa kom der et bud i-fra
c2BA ^G2AB|cB AG EE cB|^G4 A2 z2:|
w: Ro-sen-de-lund at hans kj\ae-res-te hun v\ae--re-de d\o-de.
W:
W:Herr Ole han tjente i store kongens g\aard
W:der tjente han for kleder og f\ode.
W:S\aa kom der et bud ifra Rosendelund
W:at hans kj\aereste hun v\aerede d\ode.
